icon-themes/sifr_svg/cmd/lc_redactdoc.svg

<svg xmlns="http://www.w3.org/2000/svg" viewBox="0 0 24 24">
  <path
     style="fill:#555753"
     d="M 4,2 V 23 H 20 V 21 9 8 L 14,2 Z m 2,2 h 7 v 5 h 5 V 21 H 6 Z m 1,2 v 2 h 5 V 6 Z m 2,4 c -1.1045695,0 -2,0.895431 -2,2 0,1.104569 0.8954305,2 2,2 1.10457,0 2,-0.895431 2,-2 0,-1.104569 -0.89543,-2 -2,-2 z m 3,1 v 2 h 5 v -2 z m -5,6 v 2 h 4 v -2 z"
     />
</svg>

<svg viewBox="0 0 24 24" xmlns="http://www.w3.org/2000/svg"><path d="m4 2v21h16v-2-12-1l-6-6zm2 2h7v5h5v12h-12zm1 2v2h5v-2zm2 4c-1.1045695 0-2 .895431-2 2s.8954305 2 2 2c1.10457 0 2-.895431 2-2s-.89543-2-2-2zm3 1v2h5v-2zm-5 6v2h4v-2z" fill="#555753"/></svg>
